X:1
T:We Three Kings Waltz
T:We Three Kings Waltz
T:For Piano Duo
T:John Henry Hopkins Jr.
T:Arr. by Dekkadeci
C:John Henry Hopkins Jr.
Z:Arr. by Dekkadeci
%%score { 1 | 2 } { 3 | 4 }
L:1/8
Q:1/4=196
M:3/4
K:C
V:1 treble nm="Piano" snm="Pno."
V:2 bass 
V:3 treble nm="Piano" snm="Pno."
V:4 bass 
V:1
"^Molto allegro"!mf! (A,B, CD | !trill(!TE6-) | !trill)!E2 (_B,C DE | !trill(!TF6-) | %4
 !trill)!F2 (CD EG | ^G2) (CD EG | A2) (CD EA |!<(! ^A2) B2 c2 | ^c2 d2 ^d2!<)! |!f! eB AB AE | %10
 z6 | z6 | z6 | z6 | z6 | z6 | z6 || E4 D2 | C4 A,2 | B,3 C B,2 | A,6 | E4 D2 | C4 A,2 | %23
 B,3 C B,2 | A,6 | C4 C2 | D4 D2 | E4 E2 | G2 F2 E2 | D2 E2 D2 | C4 B,2 | A,6 | B,4 D2 | %33
[K:bass] z2 [E,C]2 [G,E]2 | z2 [E,C]2 [G,E]2 | z2 [F,C]2 [A,F]2 | z2 [E,C]2 [G,E]2 | %37
 z2 [E,C]2 [G,E]2 | z2 [E,C]2 [G,E]2 | z2 [F,C]2 [A,F]2 | z2 [E,C]2 [G,E]2 | z2 [E,C]2 [G,E]2 | %42
 z2 [D,B,]2 [G,D]2 | z2 [E,C]2 [A,E]2 | z2 [D,B,]2 [G,D]2 | z2 [E,C]2 [G,E]2 | z2 [E,C]2 [G,E]2 | %47
 z2 [F,C]2 [A,F]2 |!>(! z2 [E,C]2 [CG]2!>)! ||[K:treble]!mp! z2 .[ce]2 .[ea]2 | z2 .[ce]2 .[ea]2 | %51
 z2 .[Be]2 .[e^g]2 | z2 .[ce]2 .[ea]2 | z2 .[ce]2 .[ea]2 | z2 .[ce]2 .[ea]2 | z2 .[Be]2 .[e^g]2 | %56
 z2 .[ce]2 .[ea]2 | z2 .[ce]2 .[ea]2 | z2 .[Bd]2 .[dg]2 | z2 .[ce]2 .[eg]2 | z2 .[eg]2 .[gc']2 | %61
 z2 .[df]2 .[fa]2 | z2 .[ce]2 .[e^g]2 | z2 .[ce]2 .[ea]2 | z2 .[dg]2 [Bd]G |!mp! cg c'g cg | %66
 cg c'g cg | ca c'a ca | cg c'g cg | cg c'g cg | cg c'g cg | ca c'a ca | cg c'g cg | cg c'g cg | %74
 Bg d'g Bg | Aa e'a Aa | Bg d'g Bg | cg c'g cg | cg c'g cg | ca c'a ca |!<(! cB cd ef!<)! || %81
!mf! ge dc BA | af ed fa | ge dc BA | fd cB df | ec BG FE | dB AG Bd | cA GF EG | BG FE Bd | %89
!>(! cG!>)!!mp! B!<(!G cG | dG cG dG | ^d^F ^cF dF | ^d^F ^cF dF!<)! |!f! e2 e/B/^G/E/ B/G/E/B,/ | %94
 ^G/E/B,/^G,/ z4 | z6 | z2 E2 E2 || E4 D2 | C4 A,2 | B,3 C B,2 | A,6 | E4 D2 | C4 A,2 | B,3 C B,2 | %104
 A,6 | C4 C2 | D4 D2 | E4 E2 | G2 F2 E2 | D2 E2 D2 | C4 B,2 | A,6 | B,4 D2 | %113
 c/G/E/G/ c/G/E/G/ c/G/E/G/ | c/G/E/G/ c/G/E/G/ c/G/E/G/ | c/A/F/A/ c/A/F/A/ c/A/F/A/ | %116
 c/G/E/G/ c/G/E/G/ c/G/E/G/ | c/G/E/G/ c/G/E/G/ c/G/E/G/ | c/G/E/G/ c/G/E/G/ c/G/E/G/ | %119
 c/A/F/A/ c/A/F/A/ c/A/F/A/ | c/G/E/G/ c/G/E/G/ c/G/E/G/ | c/G/E/G/ c/G/E/G/ c/G/E/G/ | %122
 B/G/D/G/ B/G/D/G/ B/G/D/G/ | c/A/E/A/ c/A/E/A/ c/A/E/A/ | B/G/D/G/ B/G/D/G/ B/G/D/G/ | %125
 c/G/E/G/ c/G/E/G/ c/G/E/G/ | c/G/E/G/ c/G/E/G/ c/G/E/G/ | c/A/F/A/ c/A/F/A/ c/A/F/A/ | %128
!>(! c/G/E/G/ G/E/C/E/ z2!>)! ||!mf! z6 | z6 | z6 | z6 | z6 | z6 | z6 | z6 |!<(! z6 | %138
 .A,2 .A,2 .A,2 | .A,2 .A,2 .A,2 | .B,2 .B,2 .B,2!<)! |!f! !^!B,2 z4 | z6 | z6 | E2 [Ee]2 [ee']2 || %145
 Ee _ed d_d | cB B_B BA | BA ^Gc BG | AB c^c d^d | Ee _ed d_d | cB B_B BA | BA ^Gc BG | A^G AG AB | %153
 cB _BA cA | d_d cB =dB | e_e dc =ec | g_g fd ec | Dd e_e d_d | Cc dc B^G | A,A ^GA _BA | %160
 B_B AG d=B |[K:bass] [E,G,C]2[K:treble] [EGc]2 [egc']2 | [egc']2 [EGc]2[K:bass] [E,G,C]2 | %163
 [F,A,C]2[K:treble] [FAc]2 [fac']2 | [egc']2 [EGc]2[K:bass] [E,G,C]2 | %165
 [E,G,C]2[K:treble] [EGc]2 [egc']2 | [egc']2 [EGc]2[K:bass] [E,G,C]2 | %167
 [F,A,C]2[K:treble] [FAc]2 [fac']2 | [egc']2 [EGc]2[K:bass] [E,G,C]2 | %169
 [G,CE]2[K:treble] [Gce]2 [gc'e']2 | [gbd']2 [GBd]2 [G,B,D]2 | %171
[K:bass] [A,C]2[K:treble] [EAc]2 [eac']2 | [gbd']2 [GBd]2 [G,B,D]2 | %173
 [E,G,C]2[K:treble] [EGc]2 [egc']2 | [egc']2 [EGc]2[K:bass] [E,G,C]2 | %175
 [F,A,C]2[K:treble] [FAc]2 [fac']2 | [egc']2 [EGc]2[K:bass] [E,G,C]2 || [E,G,C]2 [CEG]2 [CEG]2 | %178
 [F,A,C]2 [CFA]2 [CFA]2 | [D,G,B,]2 [B,DG]2 [B,DG]2 | [E,G,C]2 [CEG]2 [CEG]2 | %181
 [CEG]2 [CEG]2 [CEG]2 | [CEG]2 [CEG]2 [CEG]2 | [CDG]2 [CDG]2 [CDG]2 | [B,DG]2 [B,DG]2 [B,DG]2 | %185
 !tenuto!.[CEG]2 z4 | [CEG]2 z4 | [CEG]2 z4 | [CEG]2 z4 | [E,G,C]6- | [E,G,C]6- | [E,G,C]6 | %192
 !tenuto!.[E,G,C]2 z4 |] %193
V:2
 z4 | z6 | z6 | z6 | z6 | z6 | z6 | z ^A, z B, z C | z ^C z D z ^D | E z z4 | EB, A,B, A,E, | z6 | %12
 z6 | z6 | z6 | z6 | z6 || z6 | z6 | z6 | z6 | z6 | z6 | z6 | z6 | z6 | z6 | z6 | z6 | z6 | z6 | %31
 z6 | z6 | C,2 z4 | C,2 z4 | C,2 z4 | C,2 z4 | C,2 z4 | C,2 z4 | C,2 z4 | C,2 z4 | C,2 z4 | %42
 B,,2 z4 | A,,2 z4 | B,,2 z4 | C,2 z4 | C,2 z4 | C,2 z4 | C,2 z4 ||[K:treble] A6 | A6 | ^G6 | A6 | %53
 A6 | A6 | ^G6 | A6 | A6 | G6 | G6 | G6 | A6 | E6 | A6 |!<(! G2 .B,2 .D2!<)! |!mf! C4 C2 | C4 G,2 | %67
 C4 A,2 | C6 | C4 C2 | C4 G,2 | C4 A,2 | C6 | C4 C2 | D4 E2 | F4 E2 | D4 E2 | C4 C2 | C4 G,2 | %79
 C4 A,2 | C6 || C2 G2 C2 | D2 A2 D2 | C2 G2 C2 | B,2 G2 B,2 | C2 E2 C2 | B,2 D2 B,2 | C2 E2 C2 | %88
 B,2 D2 B,2 | C2 C2 C2 | D2 D2 D2 | ^D2 D2 D2 | ^D2 D2 D2 | E/^G/B/G/ z4 | %94
[K:bass] z2 E/B,/!courtesy!^G,/E,/ B,/G,/E,/B,,/ | z6 | z6 || E,4 D,2 | C,4 A,,2 | B,,3 C, B,,2 | %100
 A,,6 | E,4 D,2 | C,4 A,,2 | B,,3 C, B,,2 | A,,6 | C,4 C,2 | D,4 D,2 | E,4 E,2 | G,2 F,2 E,2 | %109
 D,2 E,2 D,2 | C,4 B,,2 | A,,6 | B,,4 D,2 | C,G, C,G, C,G, | C,G, C,G, C,G, | C,A, C,A, C,A, | %116
 C,G, C,G, C,G, | C,G, C,G, C,G, | C,G, C,G, C,G, | C,A, C,A, C,A, | C,G, C,G, C,G, | %121
 C,G, C,G, C,G, | B,,G, B,,G, B,,G, | C,A, C,A, C,A, | B,,G, B,,G, B,,G, | C,G, C,G, C,G, | %126
 C,G, C,G, C,G, | C,A, C,A, C,A, | C,G, C,G, C/G,/E,/B,,/ || %129
 G,,/G,/^F,/G,/ F,/G,/F,/G,/ F,/G,/F,/G,/ | A,,/A,/^G,/A,/ G,/A,/G,/A,/ G,/A,/G,/A,/ | %131
 G,,/G,/^F,/G,/ F,/G,/F,/G,/ F,/G,/F,/G,/ | F,,/F,/E,/F,/ ^F,,/^F,/^E,/F,/ G,,/G,/F,/G,/ | %133
 E,,/E,/^D,/E,/ D,/E,/D,/E,/ D,/E,/D,/E,/ | D,,/D,/^C,/D,/ C,/D,/C,/D,/ C,/D,/C,/D,/ | %135
 C,,/C,/B,,/C,/ B,,/C,/B,,/C,/ B,,/C,/B,,/C,/ | %136
 B,,,/B,,/^A,,/B,,/ A,,/B,,/A,,/B,,/ A,,/B,,/A,,/B,,/ | %137
 A,,,/A,,/^G,,/A,,/ A,,,/A,,/G,,/A,,/ A,,,/A,,/G,,/A,,/ | %138
 A,,,/A,,/^G,,/A,,/ A,,,/A,,/G,,/A,,/ A,,,/A,,/G,,/A,,/ | %139
 D,,/D,/^C,/D,/ D,,/D,/C,/D,/ D,,/D,/C,/D,/ | %140
 B,,,/B,,/^A,,/B,,/ B,,,/B,,/A,,/B,,/ B,,,/B,,/A,,/B,,/ | E,,/E,/^D,/E,/ (!>!F,2- F,/E,/=D,/C,/ | %142
 B,,/C,/B,,/A,,/ ^G,,/A,,/G,,/F,,/ E,,/F,,/E,,/^D,,/ | E,,2) z4 | [E,,E,]2 [E,,E,]2 [E,E]2 || %145
 A,,2 [C,E,]2 [C,E,]2 | A,,2 [C,E,]2 [C,E,]2 | ^G,,2 [B,,E,]2 [B,,E,]2 | A,,2 [C,E,]2 [C,E,]2 | %149
 A,,2 [C,E,]2 [C,E,]2 | A,,2 [C,E,]2 [C,E,]2 | ^G,,2 [B,,E,]2 [B,,E,]2 | A,,2 [C,E,]2 [C,E,]2 | %153
 A,,2 [C,F,]2 [C,F,]2 | B,,2 [D,G,]2 [D,G,]2 | C,2 [E,G,]2 [E,G,]2 | C,2 [E,G,]2 [E,G,]2 | %157
 D,2 [F,A,]2 [F,A,]2 | E,2 [A,C]2 [^G,B,]2 | A,,2 [C,E,]2 [C,E,]2 | G,,2 [B,,D,]2 [B,,D,]2 | %161
 C,4 C,2 | C,4 G,,2 | C,4 A,,2 | C,6 | C,4 C,2 | C,4 G,,2 | C,4 A,,2 | C,6 | C,4 C,2 | D,4 E,2 | %171
 F,4 E,2 | D,4 E,2 | C,4 C,2 | C,4 G,,2 | C,4 A,,2 | C,6 || C,2 [E,G,]2 [E,G,]2 | %178
 C,2 [F,A,]2 [F,A,]2 | B,,2 [D,G,]2 [D,G,]2 | C,2 [E,G,]2 [E,G,]2 | G,,2 A,,B,, C,/D,/E,/F,/ | %182
 G,2 F,E, D,/C,/B,,/A,,/ | G,,D, C,F, E,C, | D,C, B,,F, E,D, | C,G, F,E, D,E, | C,G, F,E, D,E, | %187
 C,G, F,E, D,E, | C,G, F,E, D,E, | C,,/C,/C,,/C,/ C,,/C,/C,,/C,/ C,,/C,/C,,/C,/ | %190
 C,,/C,/C,,/C,/ C,,/C,/C,,/C,/ C,,/C,/C,,/C,/ | C,,/C,/C,,/C,/ C,,/C,/C,,/C,/ C,,/C,/C,,/C,/ | %192
 !^![C,,C,]2 z4 |] %193
V:3
!mf! z4 | z6 | z6 | z6 | z6 | z6 | z6 |!<(! ^A,2 z4 | z6!<)! |!f! e z z4 | z6 | z6 | z6 | %13
[K:bass] z2 [C,E,]2 [C,E,]2 | z2 [^G,,B,,]2 [G,,B,,]2 | z2 [C,E,]2 [C,E,]2 | %16
 z2 [^G,,B,,]2 [G,,B,,]2 || z2 [C,E,]2 [C,E,]2 | z2 [C,E,]2 [C,E,]2 | z2 [^G,,B,,]2 [G,,B,,]2 | %20
 z2 [C,E,]2 [C,E,]2 | z2 [C,E,]2 [C,E,]2 | z2 [C,E,]2 [C,E,]2 | z2 [^G,,B,,]2 [G,,B,,]2 | %24
 z2 [C,E,]2 [C,E,]2 | z2 [C,E,]2 [C,E,]2 | z2 [D,G,]2 [D,G,]2 | z2 [E,G,]2 [E,G,]2 | %28
 z2 [E,G,]2 [E,G,]2 | z2 [A,,D,]2 [A,,D,]2 | z2 [A,,C,]2 [^G,,B,,]2 | z2 [C,E,]2 [C,E,]2 | %32
[K:treble] z2 z (D/E/ F/G/A/B/ | c4) c2 | c4 G2 | c4 A2 | c6 | c4 c2 | c4 G2 | c4 A2 | c6 | c4 c2 | %42
 d4 e2 | f4 e2 | d4 e2 | c4 c2 | c4 G2 | c4 A2 |!>(! c6!>)! ||!mf! z6 | z6 | z6 | z6 | z6 | z6 | %55
 z6 | z6 | z6 | z6 | z6 | z6 | z6 | z6 | z6 | z6 |[K:bass] z2 [E,G,]2 [E,G,]2 | %66
 z2 [E,G,]2 [E,G,]2 | z2 [F,A,]2 [F,A,]2 | z2 [E,G,]2 [E,G,]2 | z2 [E,G,]2 [E,G,]2 | %70
 z2 [E,G,]2 [E,G,]2 | z2 [F,A,]2 [F,A,]2 | z2 [E,G,]2 [E,G,]2 | z2 [E,G,]2 [E,G,]2 | %74
 z2 [D,G,]2 [D,G,]2 | z2 [E,A,]2 [E,A,]2 | z2 [D,G,]2 [D,G,]2 | z2 [E,G,]2 [E,G,]2 | %78
 z2 [E,G,]2 [E,G,]2 | z2 [F,A,]2 [F,A,]2 | z2 [E,G,]2 [E,G,]2 || z2 [E,G,]2 [E,G,]2 | %82
 z2 [F,A,]2 [F,A,]2 | z2 [E,G,]2 [E,G,]2 | z2 [D,G,]2 [D,G,]2 | z2 [E,G,]2 [E,G,]2 | %86
 z2 [D,G,]2 [D,G,]2 | z2 [E,G,]2 [E,G,]2 | z2 [D,G,]2 [D,G,]2 | %89
!>(! z2!>)!!mp! [E,G,]2!<(! [E,G,]2 | [D,G,]2 [D,G,]2 [D,G,]2 | [^D,^F,]2 [D,F,]2 [D,F,]2 | %92
 [^D,^F,]2 [D,F,]2 [D,F,]2!<)! |!f! [E,^G,]2 z4 | z6 | E,/F,/^F,/G,/ ^G,/A,/^A,/B,/ C/^C/D/^D/ | %96
[K:treble] E/^G/B/d/ e/^g/b/d'/ e'/^g/e'/g/ || %97
 e'/[ac']/e'/[ac']/ e'/[ac']/e'/[ac']/ e'/[ac']/e'/[ac']/ | %98
 e'/[ac']/e'/[ac']/ e'/[ac']/e'/[ac']/ e'/[ac']/e'/[ac']/ | %99
 e'/[^gb]/e'/[gb]/ e'/[gb]/e'/[gb]/ e'/[gb]/e'/[gb]/ | %100
 e'/[ac']/e'/[ac']/ e'/[ac']/e'/[ac']/ e'/[ac']/e'/[ac']/ | %101
 c'/[ea]/c'/[ea]/ c'/[ea]/c'/[ea]/ c'/[ea]/c'/[ea]/ | %102
 c'/[ea]/c'/[ea]/ c'/[ea]/c'/[ea]/ c'/[ea]/c'/[ea]/ | %103
 b/[e^g]/b/[eg]/ b/[eg]/b/[eg]/ b/[eg]/b/[eg]/ | %104
 c'/[ea]/c'/[ea]/ c'/[ea]/c'/[ea]/ c'/[ea]/c'/[ea]/ | %105
 a/[cf]/a/[cf]/ a/[cf]/a/[cf]/ a/[cf]/a/[cf]/ | g/[Bd]/g/[Bd]/ g/[Bd]/g/[Bd]/ g/[Bd]/g/[Bd]/ | %107
 g/[ce]/g/[ce]/ g/[ce]/g/[ce]/ g/[ce]/g/[ce]/ | g/[ce]/g/[ce]/ g/[ce]/g/[ce]/ g/[ce]/g/[ce]/ | %109
 a/[df]/a/[df]/ a/[df]/a/[df]/ a/[df]/a/[df]/ | a/[ce]/a/[ce]/ a/[ce]/a/[ce]/ ^g/[Be]/g/[Be]/ | %111
 a/[ce]/a/[ce]/ a/[ce]/a/[ce]/ a/[ce]/a/[ce]/ | g/[Bd]/g/[Bd]/ g/[Bd]/g/[Bd]/ g/[Bd]/g/[Bd]/ | %113
 [cc']4 [cc']2 | [cc']4 [Gg]2 | [cc']4 [Aa]2 | [cc']6 | [cc']4 [cc']2 | [cc']4 [Gg]2 | %119
 [cc']4 [Aa]2 | [cc']6 | [cc']4 [cc']2 | [dd']4 [ee']2 | [ff']4 [ee']2 | [dd']4 [ee']2 | %125
 [cc']4 [cc']2 | [cc']4 [Gg]2 | [cc']4 [Aa]2 |!>(! [cc']6!>)! ||!mf! .G2 g^f ag | .A2 a^g ba | %131
 .G2 g^f ag | fe dc Bd | .[Ec]2 e^d fe | .D2 d^c ed | .C2 cB dc | .B,2 B^A cB | %137
!<(! .[A,A]2 .A2 .A2 | .[^C^c]2 .c2 .c2 | .[Dd]2 .d2 .d2 | .[^D^d]2 .d2 .d2!<)! |!f! !^![Ee]2 z4 | %142
 z6 | z4 E2 | E2 [Ee]2 [ee']2 || [A,CE]2 [Ace]2 [ac'e']2 | [ac'e']2 [Ace]2 [A,CE]2 | %147
 [^G,B,E]2 [^GBe]2 [^gbe']2 | [ac'e']2 [Ace]2 [A,CE]2 | [A,CE]2 [Ace]2 [ac'e']2 | %150
 [ac'e']2 [Ace]2 [A,CE]2 | [^G,B,E]2 [^GBe]2 [^gbe']2 | [ac'e']2 [Ace]2 [A,CE]2 | %153
 [F,A,C]2 [FAc]2 [fac']2 | [dgb]2 [DGB]2[K:bass] [G,B,]2 | [G,C]2[K:treble] [EGc]2 [egc']2 | %156
 [egc']2 [EGc]2[K:bass] [G,C]2 | [F,A,D]2[K:treble] [FAd]2 [fad']2 | [ac'e']2 [Ace]2 [^G,B,E]2 | %159
 [A,CE]2 [Ace]2 [ac'e']2 | [gbd']2 [GBd]2 [G,B,D]2 | Cc B_B A_A | G_G FE _ED | CA _AG _GF | %164
 EG cG ec | Cc B_B A_A | G_G FE _ED | CA _AG _GF | EG cG ec | Cc B_B A_A | Gd _dc B_B | %171
 Aa _ag _gf | gd BG DG | Cc B_B A_A | G_G FE _ED | CA _AG _GF | EG cG ec || ge ge ge | af af af | %179
 bg bg bg | c'b c'd' e'f' |!8va(! g'/g/g'/g/ g'/g/g'/g/ g'/g/g'/g/ | %182
 g'/g/g'/g/ g'/g/g'/g/ g'/g/g'/g/ | g'/g/g'/g/ g'/g/g'/g/ g'/g/g'/g/ | %184
 g'/g/g'/g/ g'/g/g'/g/ g'/g/g'/g/ | !^![c'c'']2!8va)! z4 | [cc']2 z4 | [Cc]2 z4 | %188
[K:bass] [C,G,C]2 z4 | [E,E]6- | [E,E]6- | [E,E]4[K:treble] [ee'][ee'] | !^![ee']2 z4 |] %193
V:4
 z4 | z2 (A,,B,, C,D, | !trill(!TE,6-) | !trill)!E,2 (_B,,C, D,E, | !trill(!TF,6) | %5
 ^G,E, [^G,,E,]2 [G,,E,]2 | A,E, [A,,E,]2 [A,,E,]2 | ^A,,2 B,,2 C,2 | ^C,2 D,2 ^D,2 | E, z z4 | %10
 z6 | E,^G, B,E ^DE | FE B,^G, E,B,, | A,,2 z4 | E,,2 z4 | A,,2 z4 | E,,2 z4 || A,,2 z4 | A,,2 z4 | %19
 E,,2 z4 | A,,2 z4 | A,,2 z4 | A,,2 z4 | E,,2 z4 | A,,2 z4 | A,,2 z4 | B,,2 z4 | C,2 z4 | C,2 z4 | %29
 F,,2 z4 | E,,2 z4 | A,,2 z4 | G,,2 [B,,D,]2 [D,G,]2 |[K:treble] CE GE GE | CE GE GE | CF AF AF | %36
 CE GE GE | CE GE GE | CE GE GE | CF AF AF | CE GE GE | CE GE GE | B,D GD GD | CE AE AE | %44
 B,D GD GD | CE GE GE | CE GE GE | CF AF AF | CG FE CB, ||[K:bass] E,4 D,2 | C,4 A,,2 | %51
 B,,3 C, B,,2 | A,,6 | E,4 D,2 | C,4 A,,2 | B,,3 C, B,,2 | A,,6 | C,4 C,2 | D,4 D,2 | E,4 E,2 | %60
 G,2 F,2 E,2 | D,2 E,2 D,2 | C,4 B,,2 | A,,6 | B,,4 D,2 | C,6 | C,6 | F,,6 | C,6 | C,6 | C,6 | %71
 F,,6 | C,6 | C,6 | B,,6 | A,,6 | B,,6 | C,6 | C,6 | F,,6 | C,6 || C,6 | D,6 | C,6 | B,,6 | C,6 | %86
 G,,6 | C,6 | G,,6 | C,2 C,2 C,2 | B,,2 B,,2 B,,2 | B,,2 B,,2 B,,2 | B,,2 B,,2 B,,2 | E,2 z4 | z6 | %95
 z6 | z2 E,2 E,2 || A,,2 A,,2 A,,2 | A,,2 A,,2 A,,2 | E,,2 E,,2 E,,2 | A,,2 A,,2 A,,2 | %101
 A,,2 A,,2 A,,2 | A,,2 A,,2 A,,2 | E,,2 E,,2 E,,2 | A,,2 A,,2 A,,2 | A,,2 A,,2 A,,2 | %106
 G,,2 G,,2 G,,2 | C,2 C,2 C,2 | C,2 C,2 C,2 | F,,2 F,,2 F,,2 | E,,2 E,,2 E,,2 | A,,2 A,,2 A,,2 | %112
 G,,2 G,,2 G,,2 | [C,C]4 [C,C]2 | [C,C]4 [G,,G,]2 | [C,C]4 [A,,A,]2 | [C,C]6 | [C,C]4 [C,C]2 | %118
 [C,C]4 [G,,G,]2 | [C,C]4 [A,,A,]2 | [C,C]6 | [C,C]4 [C,C]2 | [D,D]4 [E,E]2 | [F,F]4 [E,E]2 | %124
 [D,D]4 [E,E]2 | [C,C]4 [C,C]2 | [C,C]4 [G,,G,]2 | [C,C]4 [A,,A,]2 | [C,C]6 || z6 | z6 | z6 | z6 | %133
 z6 | z6 | z6 | z6 | z6 | z6 | z6 | z6 | z6 | z6 | E,,2 [E,,E,]2 [E,,E,]2 | %144
 [E,,E,]2 [E,,E,]2 [E,,E,]2 || E,4 D,2 | C,4 A,,2 | B,,3 C, B,,2 | A,,6 | E,4 D,2 | C,4 A,,2 | %151
 B,,3 C, B,,2 | A,,6 | C,4 C,2 | D,4 D,2 | E,4 E,2 | G,2 F,2 E,2 | D,2 E,2 D,2 | C,4 B,,2 | A,,6 | %160
 B,,4 D,2 | C,2 [E,G,]2 [E,G,]2 | C,2 [E,G,]2 [E,G,]2 | C,2 [F,A,]2 [F,A,]2 | C,2 [E,G,]2 [E,G,]2 | %165
 C,2 [E,G,]2 [E,G,]2 | C,2 [E,G,]2 [E,G,]2 | C,2 [F,A,]2 [F,A,]2 | C,2 [E,G,]2 [E,G,]2 | %169
 C,2 [E,G,]2 [E,G,]2 | B,,2 [D,G,]2 [D,G,]2 | A,,2 [C,E,]2 [C,E,]2 | B,,2 [D,G,]2 [D,G,]2 | %173
 C,2 [E,G,]2 [E,G,]2 | C,2 [E,G,]2 [E,G,]2 | C,2 [F,A,]2 [F,A,]2 | C,2 [E,G,]2 [E,G,]2 || %177
 G,E, G,E, G,E, | A,F, A,F, A,F, | B,G, B,G, B,G, | CB, CD EF | [G,G]2 G,2 G,2 | G,2 G,2 G,2 | %183
 G,2 G,2 G,2 | G,2 G,2 G,2 | !tenuto!.G,2 z4 | G,2 z4 | G,2 z4 | z6 | C,6- | C,6- | C,6 | %192
 !tenuto!.C,2 z4 |] %193

